cssgg/arrows-expand-down-left.svg

<svg
  width="24"
  height="24"
  viewBox="0 0 24 24"
  fill="none"
  xmlns="http://www.w3.org/2000/svg"
>
  <path
    fill-rule="evenodd"
    clip-rule="evenodd"
    d="M13 5C13 3.89543 13.8954 3 15 3H19C20.1046 3 21 3.89543 21 5V9C21 10.1046 20.1046 11 19 11H15C13.8954 11 13 10.1046 13 9V5ZM15 5H19V9H15V5Z"
    fill="currentColor"
  />
  <path
    d="M5 13H3V21H11V19H6.41424L11.7782 13.6361C12.1687 13.2456 12.1687 12.6124 11.7782 12.2219C11.3876 11.8314 10.7545 11.8314 10.3639 12.2219L5 17.5858V13Z"
    fill="currentColor"
  />
</svg>

<svg viewBox="0 0 24 24" xmlns="http://www.w3.org/2000/svg"><path fill-rule="evenodd" d="M13 5c0-1.11.89-2 2-2h4c1.1 0 2 .89 2 2v4c0 1.1-.9 2-2 2h-4c-1.11 0-2-.9-2-2V5Zm2 0h4v4h-4V5Z"/><path d="M5 13H3v8h8v-2H6.41l5.36-5.37c.39-.4.39-1.03 0-1.42 -.4-.4-1.03-.4-1.42 0l-5.37 5.36v-4.59Z"/></svg>
